!!!OTL: KUMMT A VOGERL GEFLOGEN
!!!ARE: Europa, Mitteleuropa, Tirol
!!!SCT: Z0265
!!!YEM: Copyright 1995, estate of Helmut Schaffrath.
**kern
*ICvox
*Ivox
*M6/8
*k[b-]
*F:
{16a
16b-
=1
8cc
8a
8a
8a
8g
16g
16a
=2
8b-
8g
8g
8g
8a}
{16a
16b-
=3
8cc
8a
8a
16a
16g
8dd
16dd
16dd
=4
16dd
16e
8e
8e
4f}
{16a
16b-
=5
16cc
16ff
8cc
16a
16f
16e
16dd
8cc
16b-
16g
=6
16e
16dd
8cc
16b-
16g
4a}
{16a
16b-
=7
16cc
16ff
8cc
16a
16f
16e
16dd
8cc
16b-
16g
=8
16e
16dd
8cc
16b-
16g
4f}
==
!!!AGN: lyrisches Lied, Romanze
!!!ONB: ESAC (Essen Associative Code) Database: ZUCCAL
!!!AMT: compound duple
!!!AIN: vox
!!!EED: Helmut Schaffrath
!!!EEV: 1.0
*-
